X: 5
T: The Scotsman Over The Border
R: jig
M: 6/8
L: 1/8
K: Dmaj
D3 FDF | AFA d2c | ~B3 BAB |def edB |
ADD FDF | AFA d2c | ~B3 AFA | dAF E3 :|
|: dfa afa | bge edB | dfa afa | bge e2B |
dfa afa | bge edB | d2B AFA |dAF E3 :|


Tune 548	Setting 13512

